libs/icons/src/svg/play-circle.svg

<svg width="16" height="16" viewBox="0 0 16 16" fill="none" xmlns="http://www.w3.org/2000/svg">
<g clip-path="url(#clip0_3_3746)">
<path fill-rule="evenodd" clip-rule="evenodd" d="M7.82949 1.33333C4.22607 1.33333 1.30492 4.3181 1.30492 8C1.30492 11.6819 4.22607 14.6667 7.82949 14.6667C11.4329 14.6667 14.3541 11.6819 14.3541 8C14.3541 4.3181 11.4329 1.33333 7.82949 1.33333ZM0 8C0 3.58172 3.50538 0 7.82949 0C12.1536 0 15.659 3.58172 15.659 8C15.659 12.4183 12.1536 16 7.82949 16C3.50538 16 0 12.4183 0 8Z" fill="#202327"/>
<path fill-rule="evenodd" clip-rule="evenodd" d="M6.21672 4.74556C6.42887 4.62954 6.6863 4.64226 6.88651 4.77864L10.8013 7.44531C10.9828 7.56895 11.0918 7.7771 11.0918 8.00001C11.0918 8.22291 10.9828 8.43106 10.8013 8.55471L6.88651 11.2214C6.6863 11.3578 6.42887 11.3705 6.21672 11.2545C6.00457 11.1384 5.87213 10.9125 5.87213 10.6667V5.33334C5.87213 5.08748 6.00457 4.86157 6.21672 4.74556Z" fill="#202327"/>
</g>
<defs>
<clipPath id="clip0_3_3746">
<rect width="15.659" height="16" fill="white"/>
</clipPath>
</defs>
</svg>

<svg xmlns="http://www.w3.org/2000/svg" viewBox="0 0 16 16" class="sageicon"><path fill-rule="evenodd" d="M7.83 1.333C4.225 1.333 1.304 4.318 1.304 8s2.921 6.667 6.524 6.667c3.604 0 6.525-2.985 6.525-6.667S11.433 1.333 7.83 1.333ZM0 8c0-4.418 3.505-8 7.83-8 4.324 0 7.829 3.582 7.829 8s-3.505 8-7.83 8C3.505 16 0 12.418 0 8Z"/><path fill-rule="evenodd" d="M6.217 4.746a.64.64 0 0 1 .67.033L10.8 7.445a.67.67 0 0 1 .29.555.67.67 0 0 1-.29.555L6.887 11.22a.64.64 0 0 1-.67.034.67.67 0 0 1-.345-.588V5.333c0-.246.133-.471.345-.587Z"/></svg>
